X:13
T:Cat On A Leash
M:C|
L:1/8
K:A
"A"a2f2 ecBA|Bc c2c2Bc|"D"d2c2 BABc|"E"d2c2 BAFA|
"A"a2f2 ecBA|Bc c2c2Bc|"D"d2c2 BAFE|"E"FEFG "A"A4:|
"A"E2FEA2A2|"E"B3AB2Bc|d2c2 BABc|d2c2BAF2|
"A"E2FEA2A2|"E"B3AB2Bc|d2c2 BAFE|"E"FEFG "A"A4:|
